X: 65
T:Jump at the Sun
C:John Kirkpatrick
S:Bernie Waugh
R:Jig
M:6/8
L:1/8
K:F
|:"Dm"DFA ^G2A|DFA ^G2A|dAA dAA|"Gm"BAG "A"FGE|!
"Dm"DFA ^G2A|DFA ^G2A|dAA "Gm"BAG|1"A"FGE "Dm"D3:|2"A"FGE "Dm"D2A||!
|:"Dm"dAA fed|"A"eAA gfe|"Dm"fAA def|"A"eAA B2A|!
"Dm"dAA fed|"A"eAA gfe|"Dm"dAA "Gm"BAG|1"A"FGE "Dm"D2A:|2"A"FGE "Dm"D3|]

